packages/vibrant-icons/assets/icons/Hot/Thin.svg

<svg width="24" height="24" viewBox="0 0 24 24" fill="none" xmlns="http://www.w3.org/2000/svg">
<path d="M13.5999 16.2499C13.5999 18.0329 12.7924 19.8499 11.9999 19.8499C11.2074 19.8499 10.3999 18.0329 10.3999 16.2499C10.3999 14.7189 11.0579 13.6499 11.9999 13.6499C12.9419 13.6499 13.5999 14.7189 13.5999 16.2499ZM21.8499 13.6249C21.8499 18.7979 17.5234 22.8499 11.9999 22.8499C6.4764 22.8499 2.1499 18.7979 2.1499 13.6249C2.1499 12.5624 2.3409 11.0419 2.8659 9.80442C3.2579 10.5489 3.9499 10.9984 4.7349 10.9984H4.8849V10.8484C4.8849 8.74892 5.8694 6.39892 7.5179 4.56292C8.8669 3.05992 11.2874 1.17592 15.1859 0.669922C15.2529 2.94292 16.6639 4.40642 17.9129 5.70092C18.3474 6.15142 18.7579 6.57692 19.1044 7.02142C19.9544 8.11142 20.5574 9.06442 21.0019 10.0214C21.5729 11.2514 21.8509 12.4304 21.8509 13.6254L21.8499 13.6249ZM20.1499 13.6249C20.1499 11.8964 19.4139 10.1824 17.7634 8.06642C17.4719 7.69242 17.0914 7.29842 16.6889 6.88092C15.7014 5.85692 14.4719 4.58242 13.8614 2.80042L13.8154 2.66642L13.6789 2.70492C11.2389 3.38942 9.6694 4.71042 8.7824 5.69842C7.5709 7.04792 6.3004 8.83492 6.5134 12.9919C5.6599 12.9854 4.5959 12.7794 4.0814 12.6409L3.9104 12.5949L3.8929 12.7714C3.8644 13.0639 3.8499 13.3514 3.8499 13.6259C3.8499 17.8454 7.4299 21.1509 11.9999 21.1509C16.5699 21.1509 20.1499 17.8454 20.1499 13.6259V13.6249Z" fill="#0C0C0C"/>
</svg>

<svg xmlns="http://www.w3.org/2000/svg" width="24" height="24" fill="none"><path fill="#0C0C0C" d="M13.6 16.25c0 1.783-.808 3.6-1.6 3.6-.793 0-1.6-1.817-1.6-3.6 0-1.531.658-2.6 1.6-2.6s1.6 1.069 1.6 2.6m8.25-2.625c0 5.173-4.327 9.225-9.85 9.225-5.524 0-9.85-4.052-9.85-9.225 0-1.063.19-2.583.716-3.82.392.744 1.084 1.193 1.869 1.193h.15v-.15c0-2.1.984-4.45 2.633-6.285C8.867 3.06 11.288 1.176 15.186.67c.067 2.273 1.478 3.736 2.727 5.03.434.451.845.877 1.191 1.321.85 1.09 1.453 2.043 1.898 3 .57 1.23.849 2.41.849 3.604zm-1.7 0c0-1.729-.736-3.443-2.387-5.559-.291-.374-.672-.768-1.074-1.185-.988-1.024-2.217-2.299-2.828-4.08l-.046-.135-.136.039c-2.44.684-4.01 2.005-4.897 2.993-1.211 1.35-2.482 3.137-2.269 7.294-.853-.007-1.917-.213-2.432-.351l-.17-.046-.018.176q-.043.441-.043.855c0 4.22 3.58 7.525 8.15 7.525s8.15-3.306 8.15-7.525z"/></svg>
